X:394
T:Coming of Spring, The
R:jig
C:Paddy O'Brien (Nenagh) (1922-1991)
D:Eitre: The Coming of Spring
Z:id:hn-jig-394
M:6/8
L:1/8
K:Edor
BEE B2A | BdB BAG | ~F3 DFA | dfe dBA |
BEE B2A | Bef gfe | dAG FGA |1 BGE E2A :|2 BGE E2F ||
|: GEF G2A | B2A Bec | dAA BAG | F/G/AF DEF |
G2E FGA | Bef gfe | dAG FGA | BGE E2F :|2 BGE E2f ||
~g3 e/f/ge | Beg bag | ~f3 dcd | AFA daf |
~g3 e/f/ge | Beg bag | ~f3 daf | ged e2f |
~g3 ege | Beg bag | ~f3 dcd | AFA def |
gfe fed | Bec dfe | dAG FGA | BGE E2A ||

